X:1
T:University, CM
T:University, CM
T:Charles Collignon (1725–1785)
T:Public Domain Courtesy of the Cyber Hymnal™
C:Charles Collignon (1725–1785)
Z:Public Domain
Z:Courtesy of the Cyber Hymnal™
%%score ( 1 2 ) ( 3 4 )
L:1/8
Q:1/4=110
M:none
K:C
V:1 treble 
V:2 treble 
V:3 bass 
V:4 bass 
V:1
 [CG]2 | (FE) ([B,D]C) [Gc]2 ([Fd][Ee]) | [DG]2 [B,F]2 [CE]3 [DG] | (EC) (AG) F2 [CE]2 | %4
 [B,D]6 [DG]2 | [Gc]2 (cB) [FA]2 [CG]2 | C2 (DE) [CF]3 [CG] | (Ac) (GA) [CE]2 [B,D]2 x | C6 |] %9
V:2
 x2 | C2 x6 | x8 | C2 C2 (A,B,) x2 | x8 | x2 E2 x4 | C2 C2 x4 | F2 C2 x5 | C6 |] %9
V:3
 [C,E,]2 | (A,G,) (F,E,) [E,G,]2 ([D,B,][C,C]) | [B,,D]2 [G,,G,]2 [C,G,]3 [B,,G,] | %3
 G,2 [E,G,] (A, F,) [C,G,]2 x | G,6 B,2 | [E,C]2 [C,G,]2 [D,B,]2 (CB,) | %6
 A,2 ([F,A,][E,G,]) [D,F,]3 [E,C] | [F,A,]2 ([E,C][F,A,]) G,3 z F, | [C,E,]6 |] %9
V:4
 x2 | C,2 C,2 x4 | x8 | (C,E,) F, x D,2 x2 | G,6 (G,F,) | x6 E,2 | A,2 x6 | x4 G,2 G,,2 x | x6 |] %9

